X:209
T:Mulqueen's
R:reel
Z:transcribed by Dave Marshall
M:C|
K:D
| F2EG FDDE | FDAG FDDE | F2EG FDDE | FABc dBAG |
F2EG FDDE | FDAG FDDE | F2EG FDDE | FABc d2cd |
|: e4 efed | cdef g2fg | e4 efed | cABc d2cd |
e4 efed | cdef g2fg | a~f3 gece | dfec dBAG |
